img/tab-icons/Property.svg

<svg width="24" height="24" viewBox="0 0 24 24" fill="none" xmlns="http://www.w3.org/2000/svg">
<path d="M16.4814 6.19628C16.3907 6.05256 16.3452 5.86833 16.3719 5.68588C16.4378 5.2658 16.8191 4.98943 17.2254 5.05214L21.5757 5.72241C21.982 5.78512 22.2721 6.16957 22.201 6.5812C22.1383 6.98748 21.7485 7.26919 21.3422 7.20648L17.0003 6.53088C16.7765 6.49485 16.5883 6.36537 16.4814 6.19628Z" fill="#52525A"/>
<path d="M16.2005 10.3569C16.1204 10.2301 16.0772 10.0682 16.0839 9.91018L16.367 5.73345C16.3937 5.32627 16.7537 5.01609 17.1609 5.04275C17.5765 5.06408 17.8867 5.42406 17.8653 5.83968L17.5853 10.0026C17.5587 10.4098 17.204 10.7284 16.7831 10.6987C16.5307 10.6924 16.3234 10.5514 16.2005 10.3569Z" fill="#52525A"/>
<path d="M17.6572 6.34294C18.776 7.46178 19.5379 8.88725 19.8466 10.4391C20.1552 11.9909 19.9968 13.5994 19.3912 15.0612C18.7857 16.523 17.7604 17.7724 16.4448 18.6514C15.1292 19.5305 13.5825 19.9997 12.0002 19.9997C10.418 19.9997 8.87131 19.5305 7.55573 18.6514C6.24014 17.7724 5.21476 16.523 4.60925 15.0612C4.00374 13.5994 3.84529 11.9909 4.15394 10.4391C4.46258 8.88725 5.22447 7.46178 6.34325 6.34294M12 3.99997V12" stroke="#52525A" stroke-width="2" stroke-linecap="round" stroke-linejoin="round"/>
</svg>

<svg width="24" height="24" fill="none" xmlns="http://www.w3.org/2000/svg"><path d="M16.481 6.196a.749.749 0 0 1 .744-1.144l4.35.67a.747.747 0 0 1 .626.86.756.756 0 0 1-.859.624L17 6.531a.758.758 0 0 1-.519-.335z" fill="#52525A"/><path d="M16.2 10.357a.79.79 0 0 1-.116-.447l.283-4.177a.751.751 0 0 1 1.498.106l-.28 4.164a.75.75 0 0 1-.802.696.71.71 0 0 1-.582-.342z" fill="#52525A"/><path d="M17.657 6.343a8 8 0 1 1-11.314 0M12 4v8" stroke="#52525A" stroke-width="2" stroke-linecap="round" stroke-linejoin="round"/></svg>
